X: 271
M: C
L: 1/16
K: G
d2 |\
g2d2b2d2 c'2d2b2d2 | d2g2 c'bag f2a2a2b2 |\
g2d2b2d2 c'2d2b2d2 | d2g2 c'bag g4 g2ba |
g2d2b2d2 c'2d2b2d2 | d2g2 c'bag f2a2a2b2 |\
(e2c2).e2.g2 (d2B2).d2.g2 | d2g2 bagf agfe dcBA |]


